X:90
T:score178
L:1/8
Q:1/4=96
M:4/4
I:linebreak $
K:D
 (a4 f2 d2 |!>(! g3 e c2)!>)! z2 | (g4 e2 c2 |$!>(! a3 f d2)!>)! z2 | %4
 .b(b/a/ .b).c' d'2"_cresc." z .a | .b(b/a/ .b).c' (d'agf) |$ (fegb d2!>(! fe | d2)!>)! z2 z4 |] %8
